svg/water_pump.svg

<svg xmlns="http://www.w3.org/2000/svg" viewBox="0 0 24 24"><path d="M19 14.5s2 2.17 2 3.5a2 2 0 0 1-2 2 2 2 0 0 1-2-2c0-1.33 2-3.5 2-3.5M5 18V9a2 2 0 0 1-2-2 2 2 0 0 1 2-2V4a2 2 0 0 1 2-2h2a2 2 0 0 1 2 2v1h8a2 2 0 0 1 2 2v4a1 1 0 0 1 1 1 1 1 0 0 1-1 1h-4a1 1 0 0 1-1-1 1 1 0 0 1 1-1V9h-6v9h1a2 2 0 0 1 2 2v2H2v-2a2 2 0 0 1 2-2z"/></svg>

<?xml version="1.0" encoding="UTF-8"?><!DOCTYPE svg PUBLIC "-//W3C//DTD SVG 1.1//EN" "http://www.w3.org/Graphics/SVG/1.1/DTD/svg11.dtd"><svg xmlns="http://www.w3.org/2000/svg" xmlns:xlink="http://www.w3.org/1999/xlink" version="1.1" id="mdi-water-pump" width="24" height="24" viewBox="0 0 24 24"><path d="M19,14.5C19,14.5 21,16.67 21,18A2,2 0 0,1 19,20A2,2 0 0,1 17,18C17,16.67 19,14.5 19,14.5M5,18V9A2,2 0 0,1 3,7A2,2 0 0,1 5,5V4A2,2 0 0,1 7,2H9A2,2 0 0,1 11,4V5H19A2,2 0 0,1 21,7V9L21,11A1,1 0 0,1 22,12A1,1 0 0,1 21,13H17A1,1 0 0,1 16,12A1,1 0 0,1 17,11V9H11V18H12A2,2 0 0,1 14,20V22H2V20A2,2 0 0,1 4,18H5Z" /></svg>
